; generated by Slic3r 1.2.9 on 2020-05-06 at 15:56:51

; external perimeters extrusion width = 0.20mm
; perimeters extrusion width = 0.21mm
; infill extrusion width = 0.21mm
; solid infill extrusion width = 0.21mm
; top infill extrusion width = 0.21mm

T0
G92 X0 Y0 Z10 E0
G1 E0.2
G4 P3000
G92 E0
T0
M302 P1
G21 ; set units to millimeters
G90 ; use absolute coordinates
M83 ; use relative distances for extrusion


;#############################################################

1ml livingstone syringe:           1uL = E0.125
For each mm of line for blue:               1mm = E0.0165
For each mm of line fo white:               1mm = E0.003


;#############################################################



;code for drawing line sof tumors at 3mm/s 
;E.003 per 1mm of space movment
;E0.03 = 1uL with lavendar tip for generated code


G1 F180
G1 Z0.200 
G4 P2000
G1 X4.000  E0.065  F60
G4 P2000
G1 Z0.4 E-0.01     F20
G1 Z4              F180
G1                 F300
G1 Y2.000 E0.01      
G1 Z0              F180
G4 P1000
G1 X0.000  E0.065  F60
G4 P2000
G1 Z0.4 E-0.01     F20
G1 Z4              F180
G1                 F300
G1 Y4.000 E0.01      
G1 Z0              F180
G4 P1000
G1 X4.000  E0.065  F60
G4 P2000
G1 Z0.4 E-0.01     F20
G1 Z4              F180
G1 X0 Y0 Z10 F500
G1 E0.01


M84       ;Motors off
; filament used = 0.0mm (0.0cm3)

; avoid_crossing_perimeters = 1
; bed_shape = -81x-81,81x-81,81x81,-81x81
; bed_temperature = 0
; before_layer_gcode = 
; bridge_acceleration = 0
; bridge_fan_speed = 100
; brim_width = 0
; complete_objects = 0
; cooling = 0
; default_acceleration = 0
; disable_fan_first_layers = 3
; duplicate_distance = 6
; end_gcode = G92 Z0\nG1 Z10 F500\nG92 Z0\nM84       ;Motors off
; extruder_clearance_height = 20
; extruder_clearance_radius = 20
; extruder_offset = 0x0
; extrusion_axis = E
; extrusion_multiplier = 1
; fan_always_on = 0
; fan_below_layer_time = 60
; filament_colour = #FFFFFF
; filament_diameter = 4.61
; first_layer_acceleration = 0
; first_layer_bed_temperature = 0
; first_layer_extrusion_width = 0
; first_layer_speed = 8
; first_layer_temperature = 0
; gcode_arcs = 0
; gcode_comments = 0
; gcode_flavor = reprap
; infill_acceleration = 0
; infill_first = 0
; layer_gcode = 
; max_fan_speed = 100
; max_print_speed = 175
; max_volumetric_speed = 0
; min_fan_speed = 35
; min_print_speed = 10
; min_skirt_length = 0
; notes = 
; nozzle_diameter = 0.2
; only_retract_when_crossing_perimeters = 1
; ooze_prevention = 0
; output_filename_format = [input_filename_base]_[timestamp].gcode
; perimeter_acceleration = 0
; post_process = 
; pressure_advance = 0
; resolution = 0.001
; retract_before_travel = 5
; retract_layer_change = 0
; retract_length = 0
; retract_length_toolchange = 10
; retract_lift = 0.15
; retract_restart_extra = 0
; retract_restart_extra_toolchange = 0
; retract_speed = 1
; skirt_distance = 0.3
; skirt_height = 1
; skirts = 0
; slowdown_below_layer_time = 5
; spiral_vase = 0
; standby_temperature_delta = -5
; start_gcode = T0\nG92 X0 Y0 Z0 E0\nG1 E0.09\nG92 E0\nT0\nM302 P1
; temperature = 0
; threads = 4
; toolchange_gcode = 
; travel_speed = 8
; use_firmware_retraction = 0
; use_relative_e_distances = 1
; use_volumetric_e = 0
; vibration_limit = 0
; wipe = 0
; z_offset = 0
; dont_support_bridges = 1
; extrusion_width = 0
; first_layer_height = 100%
; infill_only_where_needed = 0
; interface_shells = 0
; layer_height = 0.2
; raft_layers = 0
; seam_position = nearest
; support_material = 0
; support_material_angle = 0
; support_material_contact_distance = 0.2
; support_material_enforce_layers = 0
; support_material_extruder = 1
; support_material_extrusion_width = 0
; support_material_interface_extruder = 1
; support_material_interface_layers = 3
; support_material_interface_spacing = 0
; support_material_interface_speed = 100%
; support_material_pattern = honeycomb
; support_material_spacing = 2.5
; support_material_speed = 40
; support_material_threshold = 60
; xy_size_compensation = 0
; bottom_solid_layers = 0
; bridge_flow_ratio = 1
; bridge_speed = 8
; external_fill_pattern = rectilinear
; external_perimeter_extrusion_width = 0
; external_perimeter_speed = 8
; external_perimeters_first = 0
; extra_perimeters = 0
; fill_angle = 45
; fill_density = 100%
; fill_pattern = rectilinear
; gap_fill_speed = 8
; infill_every_layers = 1
; infill_extruder = 1
; infill_extrusion_width = 0
; infill_overlap = 15%
; infill_speed = 8
; overhangs = 1
; perimeter_extruder = 1
; perimeter_extrusion_width = 0
; perimeter_speed = 8
; perimeters = 2
; small_perimeter_speed = 8
; solid_infill_below_area = 0
; solid_infill_every_layers = 0
; solid_infill_extruder = 1
; solid_infill_extrusion_width = 0
; solid_infill_speed = 40
; thin_walls = 1
; top_infill_extrusion_width = 0
; top_solid_infill_speed = 40
; top_solid_layers = 0
