; generated by Slic3r 1.2.9 on 2019-11-27 at 15:44:34

; external perimeters extrusion width = 0.41mm
; perimeters extrusion width = 0.43mm
; infill extrusion width = 0.43mm
; solid infill extrusion width = 0.43mm
; top infill extrusion width = 0.43mm

; external perimeters extrusion width = 0.41mm
; perimeters extrusion width = 0.43mm
; infill extrusion width = 0.43mm
; solid infill extrusion width = 0.43mm
; top infill extrusion width = 0.43mm

T0
G92 X0 Y0 Z0 E0
G1 E0.1

G92 E0
T0
M302 P1
G21 ; set units to millimeters
G90 ; use absolute coordinates
M83 ; use relative distances for extrusion
G1 Z0.180 F60.000
G1 X1.791 Y-1.204 F60.000
G1 X1.991 Y-0.836 E0.00138 F60.000
G1 X2.116 Y-0.432 E0.00140
G1 X2.160 Y-0.000 E0.00144
G1 X2.116 Y0.432 E0.00144
G1 X1.987 Y0.847 E0.00144
G1 X1.777 Y1.228 E0.00144
G1 X1.495 Y1.559 E0.00144
G1 X1.161 Y1.820 E0.00140
G1 X0.804 Y2.003 E0.00133
G1 X0.403 Y2.121 E0.00138
G1 X-0.018 Y2.160 E0.00140
G1 X-0.450 Y2.112 E0.00144
G1 X-0.864 Y1.980 E0.00144
G1 X-1.236 Y1.771 E0.00141
G1 X-1.527 Y1.527 E0.00126
G1 X-1.797 Y1.198 E0.00141
G1 X-2.001 Y0.814 E0.00144
G1 X-2.123 Y0.397 E0.00144
G1 X-2.160 Y-0.036 E0.00144
G1 X-2.110 Y-0.459 E0.00141
G1 X-1.997 Y-0.822 E0.00126
G1 X-1.797 Y-1.198 E0.00141
G1 X-1.521 Y-1.534 E0.00144
G1 X-1.183 Y-1.807 E0.00144
G1 X-0.797 Y-2.007 E0.00144
G1 X-0.379 Y-2.126 E0.00144
G1 X0.052 Y-2.159 E0.00143
G1 X0.475 Y-2.107 E0.00141
G1 X0.839 Y-1.990 E0.00126
G1 X1.213 Y-1.787 E0.00141
G1 X1.538 Y-1.515 E0.00140
G1 X1.752 Y-1.252 E0.00112
G1 X2.070 Y-1.391 F300.000
G1 X2.296 Y-0.975 E0.00147 F60.000
G1 X2.381 Y-0.743 E0.00077
G1 X2.444 Y-0.500 E0.00078
G1 X2.482 Y-0.251 E0.00078
G1 X2.495 Y-0.000 E0.00078
G1 X2.482 Y0.251 E0.00078
G1 X2.444 Y0.500 E0.00078
G1 X2.381 Y0.743 E0.00078
G1 X2.295 Y0.979 E0.00078
G1 X2.184 Y1.205 E0.00078
G1 X2.052 Y1.419 E0.00078
G1 X1.899 Y1.618 E0.00078
G1 X1.726 Y1.801 E0.00078
G1 X1.536 Y1.965 E0.00078
G1 X1.334 Y2.108 E0.00077
G1 X0.928 Y2.314 E0.00142
G1 X0.474 Y2.449 E0.00147
G1 X0.230 Y2.484 E0.00077
G1 X-0.021 Y2.495 E0.00078
G1 X-0.272 Y2.480 E0.00078
G1 X-0.520 Y2.440 E0.00078
G1 X-0.763 Y2.375 E0.00078
G1 X-0.998 Y2.286 E0.00078
G1 X-1.223 Y2.174 E0.00078
G1 X-1.433 Y2.042 E0.00077
G1 X-1.759 Y1.769 E0.00132
G1 X-1.926 Y1.586 E0.00077
G1 X-2.076 Y1.384 E0.00078
G1 X-2.205 Y1.168 E0.00078
G1 X-2.311 Y0.940 E0.00078
G1 X-2.394 Y0.703 E0.00078
G1 X-2.452 Y0.458 E0.00078
G1 X-2.486 Y0.209 E0.00078
G1 X-2.495 Y-0.042 E0.00078
G1 X-2.478 Y-0.293 E0.00078
G1 X-2.436 Y-0.537 E0.00077
G1 X-2.310 Y-0.943 E0.00132
G1 X-2.205 Y-1.168 E0.00077
G1 X-2.076 Y-1.384 E0.00078
G1 X-1.926 Y-1.586 E0.00078
G1 X-1.757 Y-1.771 E0.00078
G1 X-1.570 Y-1.939 E0.00078
G1 X-1.367 Y-2.087 E0.00078
G1 X-1.150 Y-2.214 E0.00078
G1 X-0.921 Y-2.319 E0.00078
G1 X-0.683 Y-2.400 E0.00078
G1 X-0.438 Y-2.456 E0.00078
G1 X-0.189 Y-2.488 E0.00078
G1 X0.062 Y-2.494 E0.00078
G1 X0.557 Y-2.432 E0.00155
G1 X0.962 Y-2.301 E0.00133
G1 X1.186 Y-2.195 E0.00077
G1 X1.401 Y-2.064 E0.00078
G1 X1.602 Y-1.913 E0.00078
G1 X1.783 Y-1.745 E0.00077
G1 X2.031 Y-1.438 E0.00123
G1 X1.878 Y-1.028 F300.000
G1 X1.538 Y-1.100 F300.000
G1 X1.097 Y-1.540 E0.00206 F60.000
G1 X0.167 Y-1.943 F300.000
G1 X1.942 Y-0.167 E0.00830 F60.000
G1 X1.931 Y0.349 E0.00171
G1 X-0.348 Y-1.930 E0.01066
G1 X-0.763 Y-1.818 E0.00142
G1 X1.818 Y0.764 E0.01207
G1 X1.637 Y1.110 E0.00129
G1 X-1.110 Y-1.637 E0.01285
G1 X-1.387 Y-1.386 E0.00124
G1 X1.387 Y1.388 E0.01298
G1 X1.115 Y1.644 E0.00123
G1 X-1.637 Y-1.109 E0.01288
G1 X-1.824 Y-0.768 E0.00129
G1 X0.767 Y1.823 E0.01212
G1 X0.348 Y1.932 E0.00143
G1 X-1.937 Y-0.353 E0.01069
G1 X-1.935 Y0.176 E0.00175
G1 X-0.172 Y1.939 E0.00825
G1 X-1.090 Y1.549 F300.000
G1 X-1.560 Y1.079 E0.00220 F60.000
G1 E-0.07500 F60.00000
G1 Z0.330 F300.000
G92 Z0
G1 Z10 F500
G92 Z0
M84       ;Motors off
; filament used = 0.2mm (0.0cm3)

; avoid_crossing_perimeters = 1
; bed_shape = -81x-81,81x-81,81x81,-81x81
; bed_temperature = 0
; before_layer_gcode = 
; bridge_acceleration = 0
; bridge_fan_speed = 100
; brim_width = 0
; complete_objects = 0
; cooling = 0
; default_acceleration = 0
; disable_fan_first_layers = 3
; duplicate_distance = 6
; end_gcode = G92 Z0\nG1 Z10 F500\nG92 Z0\nM84       ;Motors off
; extruder_clearance_height = 20
; extruder_clearance_radius = 20
; extruder_offset = 0x0
; extrusion_axis = E
; extrusion_multiplier = 1
; fan_always_on = 0
; fan_below_layer_time = 60
; filament_colour = #FFFFFF
; filament_diameter = 7.285
; first_layer_acceleration = 0
; first_layer_bed_temperature = 0
; first_layer_extrusion_width = 0
; first_layer_speed = 5
; first_layer_temperature = 0
; gcode_arcs = 0
; gcode_comments = 0
; gcode_flavor = reprap
; infill_acceleration = 0
; infill_first = 0
; layer_gcode = 
; max_fan_speed = 100
; max_print_speed = 175
; max_volumetric_speed = 0
; min_fan_speed = 35
; min_print_speed = 10
; min_skirt_length = 0
; notes = 
; nozzle_diameter = 0.41
; only_retract_when_crossing_perimeters = 1
; ooze_prevention = 0
; output_filename_format = [input_filename_base]_[timestamp].gcode
; perimeter_acceleration = 0
; post_process = 
; pressure_advance = 0
; resolution = 0.001
; retract_before_travel = 5
; retract_layer_change = 0
; retract_length = 0.075
; retract_length_toolchange = 10
; retract_lift = 0.15
; retract_restart_extra = 0
; retract_restart_extra_toolchange = 0
; retract_speed = 1
; skirt_distance = 0.3
; skirt_height = 1
; skirts = 0
; slowdown_below_layer_time = 5
; spiral_vase = 0
; standby_temperature_delta = -5
; start_gcode = T0\nG92 X0 Y0 Z0 E0\nG1 E0.09\nG92 E0\nT0\nM302 P1
; temperature = 0
; threads = 2
; toolchange_gcode = 
; travel_speed = 5
; use_firmware_retraction = 0
; use_relative_e_distances = 1
; use_volumetric_e = 0
; vibration_limit = 0
; wipe = 0
; z_offset = -0.22
; dont_support_bridges = 1
; extrusion_width = 0
; first_layer_height = 100%
; infill_only_where_needed = 0
; interface_shells = 0
; layer_height = 0.4
; raft_layers = 0
; seam_position = nearest
; support_material = 0
; support_material_angle = 0
; support_material_contact_distance = 0.2
; support_material_enforce_layers = 0
; support_material_extruder = 1
; support_material_extrusion_width = 0
; support_material_interface_extruder = 1
; support_material_interface_layers = 3
; support_material_interface_spacing = 0
; support_material_interface_speed = 100%
; support_material_pattern = honeycomb
; support_material_spacing = 2.5
; support_material_speed = 40
; support_material_threshold = 60
; xy_size_compensation = 0
; bottom_solid_layers = 0
; bridge_flow_ratio = 1
; bridge_speed = 5
; external_fill_pattern = rectilinear
; external_perimeter_extrusion_width = 0
; external_perimeter_speed = 5
; external_perimeters_first = 0
; extra_perimeters = 0
; fill_angle = 45
; fill_density = 100%
; fill_pattern = rectilinear
; gap_fill_speed = 5
; infill_every_layers = 1
; infill_extruder = 1
; infill_extrusion_width = 0
; infill_overlap = 15%
; infill_speed = 5
; overhangs = 1
; perimeter_extruder = 1
; perimeter_extrusion_width = 0
; perimeter_speed = 5
; perimeters = 2
; small_perimeter_speed = 5
; solid_infill_below_area = 0
; solid_infill_every_layers = 0
; solid_infill_extruder = 1
; solid_infill_extrusion_width = 0
; solid_infill_speed = 40
; thin_walls = 1
; top_infill_extrusion_width = 0
; top_solid_infill_speed = 40
; top_solid_layers = 0
