; ----  
; Generated G-Code for Midair Coil Spring
; Hack by Makefast Workshop, 2018
; This is experimental and may break your printer!
; ---- 
; ** Spring Design **
;    - shape: CIRCLE
;    - center: (0,0)
;    - radius: 5mm
;    - layers: 7 total (2 base layers, 5 coils)
;    - pitch: 2.00 mm/rev (10.00 mm coil height)
;    - cantilever compensation: +/-0.50 mm at top of coil
; ---- 
 
;LAYER:0
; --> lines to prime nozzle (short and keeps strands out of path)
;TYPE:SKIRT


G92 X11.5 Y0 Z0.473 E2.50

; Now make the lines...

G1 F20
G1 X11.0 E2.5154
G4 P1000
G1 X8.5 E2.6154
G1 X5.5 F20 Z0.573  E2.6304
G1 X3.0 F60 Z0.573  E2.6454

;LAYER:1
; --> base layer
;TYPE:WALL-OUTER
G1 F120 ; set feedrate

; Now make the desired coil shape with little segments...

G1 X3.000 Y0.000 Z0.573 E2.6454
G1 X2.976 Y0.376 Z0.613 E2.6472
G1 X2.906 Y0.746 Z0.653 E2.6491
G1 X2.789 Y1.104 Z0.693 E2.6510
G1 X2.629 Y1.445 Z0.733 E2.6529
G1 X2.427 Y1.763 Z0.773 E2.6548
G1 X2.187 Y2.054 Z0.813 E2.6567
G1 X1.912 Y2.312 Z0.853 E2.6585
G1 X1.607 Y2.533 Z0.893 E2.6604
G1 X1.277 Y2.715 Z0.933 E2.6623
G1 X0.927 Y2.853 Z0.973 E2.6642
G1 X0.562 Y2.947 Z1.013 E2.6661
G1 X0.188 Y2.994 Z1.053 E2.6680
G1 X-0.188 Y2.994 Z1.093 E2.6698
G1 X-0.562 Y2.947 Z1.133 E2.6717
G1 X-0.927 Y2.853 Z1.173 E2.6736
G1 X-1.277 Y2.715 Z1.213 E2.6755
G1 X-1.608 Y2.533 Z1.253 E2.6774
G1 X-1.912 Y2.312 Z1.293 E2.6793
G1 X-2.187 Y2.054 Z1.333 E2.6811
G1 X-2.427 Y1.764 Z1.373 E2.6830
G1 X-2.629 Y1.445 Z1.413 E2.6849
G1 X-2.790 Y1.105 Z1.453 E2.6868
G1 X-2.906 Y0.746 Z1.493 E2.6887
G1 X-2.977 Y0.376 Z1.533 E2.6906

G1 X-3.001 Y0.000 Z1.573 E2.6925
G1 X-2.977 Y-0.376 Z1.613 E2.6943
G1 X-2.906 Y-0.746 Z1.653 E2.6962
G1 X-2.790 Y-1.105 Z1.693 E2.6981
G1 X-2.630 Y-1.446 Z1.733 E2.7000
G1 X-2.428 Y-1.764 Z1.773 E2.7019
G1 X-2.188 Y-2.054 Z1.813 E2.7038
G1 X-1.913 Y-2.312 Z1.853 E2.7056
G1 X-1.608 Y-2.534 Z1.893 E2.7075
G1 X-1.278 Y-2.716 Z1.933 E2.7094
G1 X-0.928 Y-2.855 Z1.973 E2.7113
G1 X-0.562 Y-2.948 Z2.013 E2.7132
G1 X-0.188 Y-2.996 Z2.053 E2.7151
G1 X0.188 Y-2.996 Z2.093 E2.7169
G1 X0.563 Y-2.949 Z2.133 E2.7188
G1 X0.928 Y-2.855 Z2.173 E2.7207
G1 X1.278 Y-2.717 Z2.213 E2.7226
G1 X1.609 Y-2.535 Z2.253 E2.7245
G1 X1.914 Y-2.314 Z2.293 E2.7264
G1 X2.189 Y-2.056 Z2.333 E2.7282
G1 X2.430 Y-1.765 Z2.373 E2.7301
G1 X2.632 Y-1.447 Z2.413 E2.7320
G1 X2.793 Y-1.106 Z2.453 E2.7339
G1 X2.910 Y-0.747 Z2.493 E2.7358
G1 X2.980 Y-0.377 Z2.533 E2.7377

;LAYER:2
; --> base layer
;TYPE:WALL-OUTER
G1 F120 ; set feedrate

; Now make the desired coil shape with little segments...
G1 X3.004 Y0.000 Z2.573 E2.7395
G1 X2.981 Y0.377 Z2.613 E2.7414
G1 X2.911 Y0.747 Z2.653 E2.7433
G1 X2.794 Y1.106 Z2.693 E2.7452
G1 X2.634 Y1.448 Z2.733 E2.7471
G1 X2.432 Y1.767 Z2.773 E2.7490
G1 X2.191 Y2.058 Z2.813 E2.7509
G1 X1.916 Y2.317 Z2.853 E2.7527
G1 X1.611 Y2.539 Z2.893 E2.7546
G1 X1.280 Y2.721 Z2.933 E2.7565
G1 X0.929 Y2.860 Z2.973 E2.7584
G1 X0.564 Y2.955 Z3.013 E2.7603
G1 X0.189 Y3.002 Z3.053 E2.7622
G1 X-0.189 Y3.003 Z3.093 E2.7640
G1 X-0.564 Y2.956 Z3.133 E2.7659
G1 X-0.930 Y2.862 Z3.173 E2.7678
G1 X-1.282 Y2.724 Z3.213 E2.7697
G1 X-1.613 Y2.542 Z3.253 E2.7716
G1 X-1.919 Y2.320 Z3.293 E2.7735
G1 X-2.195 Y2.062 Z3.333 E2.7753
G1 X-2.437 Y1.770 Z3.373 E2.7772
G1 X-2.640 Y1.451 Z3.413 E2.7791
G1 X-2.802 Y1.109 Z3.453 E2.7810
G1 X-2.919 Y0.749 Z3.493 E2.7829
G1 X-2.990 Y0.378 Z3.533 E2.7848
G1 X-3.015 Y0.000 Z3.573 E2.7866
G1 X-2.992 Y-0.378 Z3.613 E2.7885
G1 X-2.921 Y-0.750 Z3.653 E2.7904
G1 X-2.805 Y-1.111 Z3.693 E2.7923
G1 X-2.644 Y-1.454 Z3.733 E2.7942
G1 X-2.442 Y-1.774 Z3.773 E2.7961
G1 X-2.201 Y-2.066 Z3.813 E2.7979
G1 X-1.925 Y-2.326 Z3.853 E2.7998
G1 X-1.618 Y-2.550 Z3.893 E2.8017
G1 X-1.286 Y-2.733 Z3.933 E2.8036
G1 X-0.934 Y-2.874 Z3.973 E2.8055
G1 X-0.566 Y-2.969 Z4.013 E2.8074
G1 X-0.190 Y-3.017 Z4.053 E2.8092
G1 X0.190 Y-3.018 Z4.093 E2.8111
G1 X0.567 Y-2.971 Z4.133 E2.8130
G1 X0.935 Y-2.878 Z4.173 E2.8149
G1 X1.289 Y-2.738 Z4.213 E2.8168
G1 X1.622 Y-2.556 Z4.253 E2.8187
G1 X1.930 Y-2.333 Z4.293 E2.8206
G1 X2.208 Y-2.074 Z4.333 E2.8224
G1 X2.451 Y-1.781 Z4.373 E2.8243
G1 X2.656 Y-1.460 Z4.413 E2.8262
G1 X2.819 Y-1.116 Z4.453 E2.8281
G1 X2.938 Y-0.754 Z4.493 E2.8300
G1 X3.010 Y-0.380 Z4.533 E2.8319
 
;LAYER:3
; --> ramped coil layer
;TYPE:WALL-OUTER
G1 F120 ; set feedrate

; Now make the desired coil shape with little segments...
G1 X3.035 Y0.000 Z4.573 E2.8337
G1 X3.012 Y0.381 Z4.613 E2.8356
G1 X2.942 Y0.755 Z4.653 E2.8375
G1 X2.825 Y1.119 Z4.693 E2.8394
G1 X2.664 Y1.464 Z4.733 E2.8413
G1 X2.460 Y1.787 Z4.773 E2.8432
G1 X2.217 Y2.082 Z4.813 E2.8450
G1 X1.940 Y2.345 Z4.853 E2.8469
G1 X1.631 Y2.570 Z4.893 E2.8488
G1 X1.297 Y2.756 Z4.933 E2.8507
G1 X0.942 Y2.898 Z4.973 E2.8526
G1 X0.571 Y2.994 Z5.013 E2.8545
G1 X0.191 Y3.043 Z5.053 E2.8563
G1 X-0.192 Y3.045 Z5.093 E2.8582
G1 X-0.572 Y2.998 Z5.133 E2.8601
G1 X-0.944 Y2.904 Z5.173 E2.8620
G1 X-1.301 Y2.764 Z5.213 E2.8639
G1 X-1.638 Y2.581 Z5.253 E2.8658
G1 X-1.949 Y2.356 Z5.293 E2.8676
G1 X-2.230 Y2.094 Z5.333 E2.8695
G1 X-2.476 Y1.799 Z5.373 E2.8714
G1 X-2.684 Y1.475 Z5.413 E2.8733
G1 X-2.849 Y1.128 Z5.453 E2.8752
G1 X-2.969 Y0.762 Z5.493 E2.8771
G1 X-3.043 Y0.384 Z5.533 E2.8790
G1 X-3.069 Y0.000 Z5.573 E2.8808
G1 X-3.046 Y-0.385 Z5.613 E2.8827
G1 X-2.976 Y-0.764 Z5.653 E2.8846
G1 X-2.858 Y-1.132 Z5.693 E2.8865
G1 X-2.695 Y-1.482 Z5.733 E2.8884
G1 X-2.490 Y-1.809 Z5.773 E2.8903
G1 X-2.245 Y-2.108 Z5.813 E2.8921
G1 X-1.964 Y-2.374 Z5.853 E2.8940
G1 X-1.652 Y-2.603 Z5.893 E2.8959
G1 X-1.313 Y-2.791 Z5.933 E2.8978
G1 X-0.954 Y-2.936 Z5.973 E2.8997
G1 X-0.579 Y-3.034 Z6.013 E2.9016
G1 X-0.194 Y-3.084 Z6.053 E2.9034
G1 X0.194 Y-3.086 Z6.093 E2.9053
G1 X0.580 Y-3.040 Z6.133 E2.9072
G1 X0.957 Y-2.945 Z6.173 E2.9091
G1 X1.319 Y-2.804 Z6.213 E2.9110
G1 X1.661 Y-2.618 Z6.253 E2.9129
G1 X1.978 Y-2.391 Z6.293 E2.9147
G1 X2.264 Y-2.126 Z6.333 E2.9166
G1 X2.514 Y-1.826 Z6.373 E2.9185
G1 X2.725 Y-1.498 Z6.413 E2.9204
G1 X2.893 Y-1.146 Z6.453 E2.9223
G1 X3.016 Y-0.774 Z6.493 E2.9242
G1 X3.092 Y-0.391 Z6.533 E2.9260
 
;LAYER:4
; --> ramped coil layer
;TYPE:WALL-OUTER
G1 F120 ; set feedrate

; Now make the desired coil shape with little segments...
G1 X3.119 Y0.000 Z6.573 E2.9279
G1 X3.097 Y0.391 Z6.613 E2.9298
G1 X3.025 Y0.777 Z6.653 E2.9317
G1 X2.907 Y1.151 Z6.693 E2.9336
G1 X2.742 Y1.507 Z6.733 E2.9355
G1 X2.533 Y1.840 Z6.773 E2.9373
G1 X2.284 Y2.145 Z6.813 E2.9392
G1 X1.999 Y2.416 Z6.853 E2.9411
G1 X1.682 Y2.650 Z6.893 E2.9430
G1 X1.338 Y2.843 Z6.933 E2.9449
G1 X0.972 Y2.990 Z6.973 E2.9468
G1 X0.590 Y3.091 Z7.013 E2.9487
G1 X0.198 Y3.143 Z7.053 E2.9505
G1 X-0.198 Y3.146 Z7.093 E2.9524
G1 X-0.591 Y3.099 Z7.133 E2.9543
G1 X-0.976 Y3.004 Z7.173 E2.9562
G1 X-1.346 Y2.860 Z7.213 E2.9581
G1 X-1.695 Y2.671 Z7.253 E2.9600
G1 X-2.019 Y2.440 Z7.293 E2.9618
G1 X-2.311 Y2.170 Z7.333 E2.9637
G1 X-2.567 Y1.865 Z7.373 E2.9656
G1 X-2.783 Y1.530 Z7.413 E2.9675
G1 X-2.956 Y1.170 Z7.453 E2.9694
G1 X-3.082 Y0.791 Z7.493 E2.9713
G1 X-3.160 Y0.399 Z7.533 E2.9731
G1 X-3.189 Y0.000 Z7.573 E2.9750



; print line connecting perfusion left side entareance 
G1 F60
G1 X-8.5 Z7.700 F20 E3.000
G1 X-11.0 F20 E3.100
 
 
; ---- Final Z Lift (slow) ----
G1 F240 X-11.5 Y0.000 Z15 
 

; ---- 
; End of generated G-Code for Coil Spring
; ---- 